src/assets/images/icon-arrow-right.svg

<svg height="24" viewBox="0 0 24 24" width="24" xmlns="http://www.w3.org/2000/svg"><path d="m12.295 4.705c.3893607-.38936075 1.0206393-.38936075 1.41 0l6.5878932 6.5878932c.3905243.3905243.3905243 1.0236893 0 1.4142136l-6.5878932 6.5878932c-.3893607.3893607-1.0206393.3893607-1.41 0-.3894628-.3894628-.3897454-1.0208196-.0006314-1.4106309l4.8756314-4.8843691h-12.17c-.55228475 0-1-.4477153-1-1s.44771525-1 1-1h12.17l-4.8756314-4.88436913c-.389114-.38981131-.3888314-1.02116807.0006314-1.41063087z" fill="#fff"/></svg>

<svg xmlns="http://www.w3.org/2000/svg" xmlns:xlink="http://www.w3.org/1999/xlink" width="24" height="24" viewBox="0 0 24 24">
  <defs>
    <path id="arrow-right-a" d="M12.295,4.705 C12.6843607,4.31563925 13.3156393,4.31563925 13.705,4.705 L20.2928932,11.2928932 C20.6834175,11.6834175 20.6834175,12.3165825 20.2928932,12.7071068 L13.705,19.295 C13.3156393,19.6843607 12.6843607,19.6843607 12.295,19.295 C11.9055372,18.9055372 11.9052546,18.2741804 12.2943686,17.8843691 L17.17,13 L5,13 C4.44771525,13 4,12.5522847 4,12 C4,11.4477153 4.44771525,11 5,11 L17.17,11 L12.2943686,6.11563087 C11.9052546,5.72581956 11.9055372,5.0944628 12.295,4.705 Z"/>
  </defs>
  <g fill="none" fill-rule="evenodd">
    <use fill="#FFF" fill-rule="nonzero" xlink:href="#arrow-right-a"/>
  </g>
</svg>
